remix/Finance/water-flash-fill.svg

<svg viewBox="0 0 24 24" fill="currentColor" xmlns="http://www.w3.org/2000/svg"><path d="M5.64092 6.63874L12.0049 0.27478L18.3688 6.63874C21.8836 10.1535 21.8836 15.8519 18.3688 19.3667C14.8541 22.8814 9.15564 22.8814 5.64092 19.3667C2.1262 15.8519 2.1262 10.1535 5.64092 6.63874H5.64092ZM13.0049 11.0027V6.5027L8.50488 13.0027H11.0049V17.5027L15.5049 11.0027H13.0049Z"/></svg>

<svg viewBox="0 0 24 24" xmlns="http://www.w3.org/2000/svg"><path fill="none" d="M0 0h24v24H0Z"/><path d="M5.63 6.636L11.99.27l6.36 6.36v-.001c3.51 3.51 3.51 9.21-.01 12.72 -3.52 3.51-9.22 3.51-12.73-.01 -3.52-3.52-3.52-9.22-.001-12.73ZM12.99 11V6.5L8.49 13h2.5v4.5l4.5-6.5h-2.5Z"/></svg>
